svgs/sharp-light/circle-bookmark.svg

<svg xmlns="http://www.w3.org/2000/svg" viewBox="0 0 512 512"><!--! Font Awesome Pro 6.6.0 by @fontawesome - https://fontawesome.com License - https://fontawesome.com/license (Commercial License) Copyright 2024 Fonticons, Inc. --><path d="M256 32a224 224 0 1 1 0 448 224 224 0 1 1 0-448zm0 480A256 256 0 1 0 256 0a256 256 0 1 0 0 512zm17.8-218.6L256 281.5l-17.8 11.8L192 324.2 192 160l128 0 0 164.2-46.2-30.8zM160 384l32-21.3L256 320l64 42.7L352 384l0-38.5L352 160l0-32-32 0-128 0-32 0 0 32 0 185.5 0 38.5z"/></svg>

<svg xmlns="http://www.w3.org/2000/svg" viewBox="0 0 512 512"><!--! Font Awesome Pro 6.4.2 by @fontawesome - https://fontawesome.com License - https://fontawesome.com/license (Commercial License) Copyright 2023 Fonticons, Inc. --><path d="M256 32a224 224 0 1 1 0 448 224 224 0 1 1 0-448zm0 480A256 256 0 1 0 256 0a256 256 0 1 0 0 512zm17.8-218.6L256 281.5l-17.8 11.8L192 324.2V160H320V324.2l-46.2-30.8zM160 384l32-21.3L256 320l64 42.7L352 384V345.5 160 128H320 192 160v32V345.5 384z"/></svg>
